material/.icons/material/flask-round-bottom.svg

<svg xmlns="http://www.w3.org/2000/svg" viewBox="0 0 24 24"><path d="M19 15c0 3.87-3.13 7-7 7s-7-3.13-7-7c0-2.79 1.64-5.2 4-6.33V5c0-.55.45-1 1-1h.5l-1-2h5l-1 2h.5c.55 0 1 .45 1 1v3.67c2.36 1.13 4 3.54 4 6.33m-8-9v4.1A5 5 0 007 15l.08.91L9 13.93 13.07 18l3.86-3.86A5.013 5.013 0 0013 10.1V6h-2m2.07 6c.55 0 1 .45 1 1s-.45 1-1 1c-.57 0-1-.45-1-1s.43-1 1-1z"/></svg>

<?xml version="1.0" encoding="UTF-8"?><!DOCTYPE svg PUBLIC "-//W3C//DTD SVG 1.1//EN" "http://www.w3.org/Graphics/SVG/1.1/DTD/svg11.dtd"><svg xmlns="http://www.w3.org/2000/svg" xmlns:xlink="http://www.w3.org/1999/xlink" version="1.1" id="mdi-flask-round-bottom" width="24" height="24" viewBox="0 0 24 24"><path d="M19 15C19 18.87 15.87 22 12 22C8.13 22 5 18.87 5 15C5 12.21 6.64 9.8 9 8.67V5C9 4.45 9.45 4 10 4H10.5L9.5 2H14.5L13.5 4H14C14.55 4 15 4.45 15 5V8.67C17.36 9.8 19 12.21 19 15M11 6V10.1C8.72 10.56 7 12.58 7 15L7.08 15.91L9 13.93L13.07 18L16.93 14.14C16.58 12.12 15 10.5 13 10.1V6H11M13.07 12C13.62 12 14.07 12.45 14.07 13C14.07 13.55 13.62 14 13.07 14C12.5 14 12.07 13.55 12.07 13C12.07 12.45 12.5 12 13.07 12Z" /></svg>
